X:1
T:Ave maris stella
T:Jan Pieterszoon Sweelinck
T:Ave maris stella
T:canon a 3
C:Jan Pieterszoon Sweelinck
%%score [ 1 2 3 ]
L:1/8
Q:1/4=120
M:4/2
K:C
V:1 treble-8 nm="Tenor 1" snm="T 1"
V:2 treble-8 nm="Tenor 2" snm="T 2"
V:3 bass nm="Bass" snm="B"
V:1
 z4 A8 d4- | d4 B8 c4- | c4 d8 d4- | d2 c2 B4 e6 dc | d4 g4 e4 f4 | z2 d2 g4 e2 d2 c2 B2 | %6
w: A- *|* ve _|_ ma- ris|_ _ _ stel- * *|* * la, _|De- * * * * *|
 c4 A4 z4 a2 g2 | f2 e2 d2 c2 B2 A2 G4- | G2 F2 E4 A6 GF | G4 z2 c2 A2 Bc d4 | B4 c4 f4 e2 d2 | %11
w: * i Ma- *|||ter al- * * * *|* * ma, _ _|
 c4 d4 z4 B4- | B2 A2 G2 F2 E4 c4- | c4 c4 A4 G2 F2 | G4 g4 a6 gf | g6 fe f4 z2 d2 | %16
w: _ _ At-||* que _ _ _|_ sem- * * *|* * * per Vir-|
 e4 d2 c2 B2 A2 G4 | z4 e8 d4 | g4 e4 f4 z2 d2 | g4 z2 e2 a4 z2 f2 | g4 z2 e2 f4 e2 d2 | %21
w: * * * * * go,|Fe- lix|cae- * lo por-|* por- * por-|* por- * * *|
 e4 e4 ^f8 |] %22
w: * ta. _|
V:2
 D8 A8 | B8 G8 | A8 B8 | d8 c8 | B8 A8 | G8 A8- | A8 A8 | D8 E8 | G8 F8 | E8 D8 | E8 D8 | F8 E8 | %12
w: A- *|ve _|ma- *|ris _|stel- *|la, De-|* i|_ Ma-|* ter|_ al-|* ma,|At- *|
 G8 A8 | A8 D8 | E8 F8 | E8 D8 | C8 E8 | G8 F8 | E8 D8 | E8 F8 | E8 D8 | ^C8 D8 |] %22
w: que _|sem- *|per _|Vir- *|go, Fe-|* lix|_ cae-|* lo|_ por-|* ta.|
V:3
 z8 D,8 | G,8 E,8 | F,8 G,8 | G,6 F,2 E,4 A,4- | A,2 G,F, G,4 C4 A,4 | B,4 z2 G,2 C4 A,2 G,2 | %6
w: A-|* ve|_ ma-|ris _ _ stel-|* * * * * la,|_ De- * * *|
 F,2 E,2 F,4 D,4 z4 | D2 C2 B,2 A,2 G,2 F,2 E,2 D,2 | C,6 B,,2 A,,4 D,4- | %9
w: * * * i|Ma- * * * * * * *||
 D,2 C,B,, C,4 z2 F,2 D,2 E,F, | G,4 E,4 F,4 _B,4 | A,2 G,2 F,4 G,4 z4 | E,6 D,2 C,2 B,,2 A,,4 | %13
w: * * * ter al- * * *|* * * ma,|_ _ _ _|At- * * * *|
 F,8 F,4 D,4 | C,2 B,,2 C,4 C4 D4- | D2 CB, C6 B,A, B,4 | z2 G,2 A,4 G,2 F,2 E,2 D,2 | C,4 z4 A,8 | %18
w: * que _|_ _ _ sem- *|* * * * * * per|Vir- * * * * *|go, Fe-|
 G,4 C4 A,4 B,4 | z2 G,2 C4 z2 A,2 D4 | z2 B,2 C4 z2 A,2 B,4 | A,16 |] %22
w: lix cae- * lo|por- * por- *|por- * por- *|ta.|

